icon-svg/tilt-window-opened.svg

<svg xmlns="http://www.w3.org/2000/svg" fill="#44739e" viewBox="0 0 24 24"><path d="m19.333 8.111-.255.437h.168l.668-.452zm-2.821 2.602.162-.284-6.618 3.619-7.921-.515.068.203 7.857.663zm-.205.304-1.102.612-3.583 6.477-5.623-.878L7.17 15.15l-.285-.041-1.254 2.055-.283-.042 1.314-2.048-.751-.099-1.73 2.579 7.992 1.378zm4.501-7.478-8.544 15.708-7.992-1.377.827.826 7.992 1.378L21.083 4.09Zm-3.922 4.572h-1.832L4.7 12.983l.999.017 9.47-4.446 1.451.019Zm1.717 1.491-.685 1.338 3.992-2.441v-.826Zm-4.22 3.291.637-1.086-4.896 2.852-7.23-.648.276.551 7.165.827zm4.288-3.5 3.063-1.766-2.259.045-.046.205 1.257-.035-1.765 1.037zm-1.885.782 3.9-6.9-7.871.814-3.858 6.064-6.867 3.163 7.966.5zm-13 3.016 6.272-3.035 3.216-5.369 6.1-.563-.1.223-5.864.541-3 5.023 4.528-2.118 2.044-.009.14-.209h-2.377l-3.466 1.586 2.341-3.786L18.984 5l-3.212 5.212-5.988 3.248Z"/></svg>

<?xml version="1.0" encoding="UTF-8"?>
<svg width="24px" fill="#44739e" height="24px" viewBox="0 0 24 24" version="1.1" xmlns="http://www.w3.org/2000/svg" xmlns:xlink="http://www.w3.org/1999/xlink">
            <path d="m 19.333,8.111 -0.255,0.437 h 0.168 l 0.668,-0.452 z m -2.821,2.602 0.162,-0.284 -6.618,3.619 -7.921,-0.515 0.068,0.203 7.857,0.663 z m -0.205,0.304 -1.102,0.612 -3.583,6.477 L 5.999,17.228 7.17,15.15 6.885,15.109 5.631,17.164 5.348,17.122 6.662,15.074 5.911,14.975 l -1.73,2.579 7.992,1.378 z M 20.808,3.539 12.264,19.247 4.272,17.87 5.099,18.696 13.091,20.074 21.083,4.09 Z M 16.886,8.111 H 15.054 L 4.7,12.983 5.699,13 15.169,8.554 16.62,8.573 Z M 18.603,9.602 17.918,10.94 21.91,8.499 V 7.673 Z m -4.22,3.291 0.637,-1.086 -4.896,2.852 -7.23,-0.648 0.276,0.551 7.165,0.827 z m 4.288,-3.5 3.063,-1.766 -2.259,0.045 -0.046,0.205 1.257,-0.035 -1.765,1.037 z m -1.885,0.782 3.9,-6.9 -7.871,0.814 -3.858,6.064 -6.867,3.163 7.966,0.5 z m -13,3.016 6.272,-3.035 3.216,-5.369 6.1,-0.563 -0.1,0.223 -5.864,0.541 -3,5.023 4.528,-2.118 2.044,-0.009 0.14,-0.209 H 14.745 L 11.279,9.261 13.62,5.475 18.984,5 15.772,10.212 9.784,13.46 Z"/>

</svg>
